icon/gr/google.svg

<svg xmlns="http://www.w3.org/2000/svg" xmlns:xlink="http://www.w3.org/1999/xlink" viewBox="0 0 24 24" height="1em" width="1em">
  <path fill="#EA4335 " d="M5.26620003,9.76452941 C6.19878754,6.93863203 8.85444915,4.90909091 12,4.90909091 C13.6909091,4.90909091 15.2181818,5.50909091 16.4181818,6.49090909 L19.9090909,3 C17.7818182,1.14545455 15.0545455,0 12,0 C7.27006974,0 3.1977497,2.69829785 1.23999023,6.65002441 L5.26620003,9.76452941 Z"/>
  <path fill="#34A853" d="M16.0407269,18.0125889 C14.9509167,18.7163016 13.5660892,19.0909091 12,19.0909091 C8.86648613,19.0909091 6.21911939,17.076871 5.27698177,14.2678769 L1.23746264,17.3349879 C3.19279051,21.2936293 7.26500293,24 12,24 C14.9328362,24 17.7353462,22.9573905 19.834192,20.9995801 L16.0407269,18.0125889 Z"/>
  <path fill="#4A90E2" d="M19.834192,20.9995801 C22.0291676,18.9520994 23.4545455,15.903663 23.4545455,12 C23.4545455,11.2909091 23.3454545,10.5272727 23.1818182,9.81818182 L12,9.81818182 L12,14.4545455 L18.4363636,14.4545455 C18.1187732,16.013626 17.2662994,17.2212117 16.0407269,18.0125889 L19.834192,20.9995801 Z"/>
  <path fill="#FBBC05" d="M5.27698177,14.2678769 C5.03832634,13.556323 4.90909091,12.7937589 4.90909091,12 C4.90909091,11.2182781 5.03443647,10.4668121 5.26620003,9.76452941 L1.23999023,6.65002441 C0.43658717,8.26043162 0,10.0753848 0,12 C0,13.9195484 0.444780743,15.7301709 1.23746264,17.3349879 L5.27698177,14.2678769 Z"/>
</svg>

<svg xmlns="http://www.w3.org/2000/svg" width="24" height="24"><path fill="#EA4335" d="M5.266 9.765A7.077 7.077 0 0 1 12 4.909c1.69 0 3.218.6 4.418 1.582L19.91 3C17.782 1.145 15.055 0 12 0 7.27 0 3.198 2.698 1.24 6.65l4.026 3.115Z"/><path fill="#34A853" d="M16.04 18.013c-1.09.703-2.474 1.078-4.04 1.078a7.077 7.077 0 0 1-6.723-4.823l-4.04 3.067A11.965 11.965 0 0 0 12 24c2.933 0 5.735-1.043 7.834-3l-3.793-2.987Z"/><path fill="#4A90E2" d="M19.834 21c2.195-2.048 3.62-5.096 3.62-9 0-.71-.109-1.473-.272-2.182H12v4.637h6.436c-.317 1.559-1.17 2.766-2.395 3.558L19.834 21Z"/><path fill="#FBBC05" d="M5.277 14.268A7.12 7.12 0 0 1 4.909 12c0-.782.125-1.533.357-2.235L1.24 6.65A11.934 11.934 0 0 0 0 12c0 1.92.445 3.73 1.237 5.335l4.04-3.067Z"/></svg>
